svgs/duotone/sidebar-flip.svg

<svg xmlns="http://www.w3.org/2000/svg" viewBox="0 0 512 512"><!--! Font Awesome Pro 6.4.0 by @fontawesome - https://fontawesome.com License - https://fontawesome.com/license (Commercial License) Copyright 2023 Fonticons, Inc. --><defs><style>.fa-secondary{opacity:.4}</style></defs><path class="fa-primary" d="M448 32c35.3 0 64 28.7 64 64V416c0 35.3-28.7 64-64 64H288V32H448zM424 96H376c-13.3 0-24 10.7-24 24s10.7 24 24 24h48c13.3 0 24-10.7 24-24s-10.7-24-24-24zm24 120c0-13.3-10.7-24-24-24H376c-13.3 0-24 10.7-24 24s10.7 24 24 24h48c13.3 0 24-10.7 24-24zm-24 72H376c-13.3 0-24 10.7-24 24s10.7 24 24 24h48c13.3 0 24-10.7 24-24s-10.7-24-24-24z"/><path class="fa-secondary" d="M0 96C0 60.7 28.7 32 64 32H288V480H64c-35.3 0-64-28.7-64-64V96z"/></svg>

<svg xmlns="http://www.w3.org/2000/svg" viewBox="0 0 512 512"><!--! Font Awesome Pro 6.3.0 by @fontawesome - https://fontawesome.com License - https://fontawesome.com/license (Commercial License) Copyright 2023 Fonticons, Inc. --><defs><style>.fa-secondary{opacity:.4}</style></defs><path class="fa-primary" d="M448 32C483.3 32 512 60.65 512 96V416C512 451.3 483.3 480 448 480H288V32H448zM376 96C362.7 96 352 106.7 352 120C352 133.3 362.7 144 376 144H424C437.3 144 448 133.3 448 120C448 106.7 437.3 96 424 96H376zM448 216C448 202.7 437.3 192 424 192H376C362.7 192 352 202.7 352 216C352 229.3 362.7 240 376 240H424C437.3 240 448 229.3 448 216zM376 288C362.7 288 352 298.7 352 312C352 325.3 362.7 336 376 336H424C437.3 336 448 325.3 448 312C448 298.7 437.3 288 424 288H376z"/><path class="fa-secondary" d="M0 96C0 60.65 28.65 32 64 32H288V480H64C28.65 480 0 451.3 0 416V96z"/></svg>
